X:1
T:James Gibb editions
T:The journey done, the rest begun - Barnby
%%score [ ( 1 2 ) ( 3 4 ) ]
L:1/8
Q:1/4=84
M:4/4
K:Eb
V:1 treble nm="Midi_74"
V:2 treble 
V:3 bass nm="Midi_74"
V:4 bass 
V:1
"^Avondale (87. 87. D)""^The journey done, the rest begun""^Joseph Barnby\n(1838-96)" E2 | %1
 E3 E E2 E2 | E3 E E2 || F2 | G2 c2 B2 F2 | A4 G2 || G2 | G3 G G2 G2 | =A3 A A2 || =A2 | %10
 =A2 e2 d2 A2 | c4 B2 ||[M:4/4] B2 | B2 d2 c2 B2 | e2 B2 G2 || E2 | B3 B A2 B2 | B4 c2 || c2 | %19
 B2 A2 G2 A2 | G2 F2 E2 || E2 | B,3 E E2 G2 | F4 E4 || E4 E4 |] %25
V:2
 B,2 | B,3 .B, B,2 B,2 | C3 C E2 || E2 | E2 E2 D2 F2 | D4 E2 || E2 | E3 E E2 E2 | E3 E E2 || G2 | %10
 ^F2 G2 F2 =A2 | ^F4 G2 ||[M:4/4] D2 | D2 F2 E2 D2 | E2 D2 E2 || E2 | E3 E E2 G2 | G4 A2 || E2 | %19
 D2 F2 E2 C2 | =B,2 D2 C2 || C2 | B,3 B, B,2 E2 | D4 E4 || C4 B,4 |] %25
V:3
 G,2 | G,3 G, G,2 G,2 | G,3 G, G,2 || A,2 | B,2 G,2 F,2 B,2 | B,4 B,2 || B,2 | B,3 B, B,2 B,2 | %8
 C3 C C2 || E2 | D2 B,2 =A,2 D2 | D4 D2 ||[M:4/4] B,2 | A,2 A,2 A,2 B,2 | B,2 A,2 B,2 || G,2 | %16
 G,3 G, A,2 _D2 | _D4 C2 || A,2 | F,2 B,2 B,2 A,2 | D,2 G,2 G,2 || ^F,2 | G,3 G, G,2 B,2 | %23
 A,4 G,4 || A,4 G,4 |] %25
V:4
 E,2 | E,3 E, E,2 E,2 | C,3 C, C,2 || C,2 | B,,2 B,,2 B,,2 D,2 | F,4 E,2 || E,2 | E,3 E, E,2 E,2 | %8
 C,3 C, C,2 || C,2 | D,2 D,2 D,2 ^F,2 | =A,4 G,2 ||[M:4/4] G,2 | F,2 B,,2 B,,2 A,2 | G,2 F,2 E,2 || %15
 E,2 | _D,3 D, C,2 B,,2 | A,,4 A,,2 || A,,2 | B,,2 D,2 E,2 F,,2 | G,,2 =B,,2 C,2 || =A,,2 | %22
 B,,3 B,, B,,2 B,,2 | B,,4 E,4 || A,,4 E,4 |] %25

